X:1
T:BONNIE LASS O' FYFE
M:C
L:1/8
Q:80
C:Traditional
S:March
K:HP
|: A | \
{Gdc}d2{gdc}d3/2e/2{Gdc}-dA | \
{Gdc}d2{gdc}d3/2e/2{Gdc}d2-d2 | \
{gef}e2{g}fg{ag}a2{f}gf |
{gef}e2{g}A2{GAG}A2a3/2g/2 | \
{a}f3/2e/2{g}fg{ag}a2{GAG}A2 | \
{Gdc}d3/2e/2{g}dB{g}G2-G{d}B |
{g}A2{Gdc}d2{gef}ed{gcd}cB | \
{g}A2{Gdc}d2{gdc}d2-d :|
